X: 86
T: Ge qingcai
%%abc-version 2.0
%%abcx-abcm2ps-target-version 5.9.1 (29 Sep 2008)
%%abc-creator hum2abc beta
%%abcx-conversion-date 2013/10/02 07:52:29
%%abc-edited-by Helmut Schaffrath
%%humdrum-veritas 806388583
%%humdrum-veritas-data 894707014
%%continueall 1
%%barnumbers 0
L: 1/16
M: 2/4
K: G
d2 e d B d B A [I:setbarnb 1]| 
d2 e d B d B A | 
G2> E2 d e d B | 
A B A EG4 | 
G G2 A d e d A | 
G A B e d B A G | 
A E2 D G A d A | 
G F E B,D4 | 
d A d e d B A G | 
A E2 D G A d A | 
G F E B,D4 |]  



